icons/infinity-24.svg

<svg width="24" height="24" viewBox="0 0 24 24" fill="none" xmlns="http://www.w3.org/2000/svg">
<path fill-rule="evenodd" clip-rule="evenodd" d="M5.25 8.5C3.21839 8.5 1.5 10.3951 1.5 12.25C1.5 14.1049 3.21839 16 5.25 16C6.26678 16 7.26414 15.5434 8.3116 14.7468C9.20229 14.0694 10.0701 13.193 10.9672 12.25C10.0701 11.307 9.20229 10.4306 8.3116 9.75321C7.26414 8.95655 6.26678 8.5 5.25 8.5ZM12 11.1592C11.1126 10.2275 10.1874 9.29533 9.21965 8.55929C8.04836 7.66845 6.73322 7 5.25 7C2.34258 7 0 9.61487 0 12.25C0 14.8851 2.34258 17.5 5.25 17.5C6.73322 17.5 8.04836 16.8316 9.21965 15.9407C10.1874 15.2047 11.1126 14.2725 12 13.3408C12.8874 14.2725 13.8126 15.2047 14.7803 15.9407C15.9516 16.8316 17.2668 17.5 18.75 17.5C21.6574 17.5 24 14.8851 24 12.25C24 9.61487 21.6574 7 18.75 7C17.2668 7 15.9516 7.66845 14.7803 8.55929C13.8126 9.29533 12.8874 10.2275 12 11.1592ZM13.0328 12.25C13.9299 13.193 14.7977 14.0694 15.6884 14.7468C16.7359 15.5434 17.7332 16 18.75 16C20.7816 16 22.5 14.1049 22.5 12.25C22.5 10.3951 20.7816 8.5 18.75 8.5C17.7332 8.5 16.7359 8.95655 15.6884 9.75321C14.7977 10.4306 13.9299 11.307 13.0328 12.25Z" fill="#24292E"/>
</svg>

<svg xmlns="http://www.w3.org/2000/svg" width="24" height="24" viewBox="0 0 24 24"><path fill-rule="evenodd" d="M5.25 8.5c-2.032 0-3.75 1.895-3.75 3.75S3.218 16 5.25 16c1.017 0 2.014-.457 3.062-1.253.89-.678 1.758-1.554 2.655-2.497-.897-.943-1.765-1.82-2.655-2.497C7.264 8.957 6.267 8.5 5.25 8.5zM12 11.16c-.887-.933-1.813-1.865-2.78-2.6C8.048 7.667 6.733 7 5.25 7 2.343 7 0 9.615 0 12.25s2.343 5.25 5.25 5.25c1.483 0 2.798-.668 3.97-1.56.967-.735 1.893-1.667 2.78-2.6.887.933 1.813 1.865 2.78 2.6 1.172.892 2.487 1.56 3.97 1.56 2.907 0 5.25-2.615 5.25-5.25S21.657 7 18.75 7c-1.483 0-2.798.668-3.97 1.56-.967.735-1.893 1.667-2.78 2.6zm1.033 1.09c.897.943 1.765 1.82 2.655 2.497C16.736 15.543 17.733 16 18.75 16c2.032 0 3.75-1.895 3.75-3.75S20.782 8.5 18.75 8.5c-1.017 0-2.014.457-3.062 1.253-.89.678-1.758 1.554-2.655 2.497z"/></svg>
